X:1
T:Alça la ninya
T:Anonymous
T:Source : Cancionero de Uppsala : Villancicos---Venetia---G.Scotto---1556. Editor : André Vierendeels (11/04/17).
T:Notes : Original clefs : C2, C3, C4 Original note values have been halved Editorial accidentals above the staff Square bracket indicates ligature
T:b
T:-natural
T:Alça la ninya
T:©
T:©
C:Anonymous
Z:©
%%score [ 1 [ 2 3 ] ]
L:1/8
Q:1/4=120
M:2/2
K:F
V:1 treble nm="Soprano" snm="S"
V:2 treble-8 nm="Tenor 1" snm="T 1"
V:3 treble-8 nm="Tenor 2" snm="T 2"
V:1
 z8 | A4 B2 G2 | A2 F2 G2 E2 | F2 ED E4 | D4 z2 E2 | FG A4 G2 |"^#" A2 D4 C2 | D4 z2 D2 | %8
w: |Al- ça la|ni- nya los o-||yos, no|pa- ra to- *||dos, no|
w: |Que la fie-|sta se- gun ve-||o, no|pa- ra to- *||dos, noes|
 E2 F2 D4 | EF G4 F2 | G3 F E4 | D8 || z8 | z4 D4 | G2 E2 F2 D2 | F2 G2 E4 | FG A4 G2 | A2 D4 C2 | %18
w: pa- ra to-|||dos.||Al-|ça los por Iu-|bi- le- *|||
w: pa- ra to-|||dos.||Por|ma- tar nos de|des- se- *|||
 D8 |] %19
w: o.|
w: o.|
V:2
 z8 | z2 d4 e2 | c2 d2 B2 c2 |"^#" A2 d4 c2 | d4 A4 | z4 z2 d2 | ef g2 e4 | d4 z4 | z2 A2 Bc d2- | %9
w: |Al- ça|la ni- nya los|o- * *|* yos|no|pa- ra to- *|dos,|no pa- ra to-|
w: |Que la|fie- sta se- gun|ve- * *|* o|noes|pa- ra to- *|dos,|noees pa- ra to-|
 d2 c2 d2 A2 |"^#" Bc d4 c2 | d8 || z8 | d4 f2 d2 | e2 c2 d2 B2 | A2 G2 A4 | z4 z2 d2 | ef g2 e4 | %18
w: * * dos, no|pa- ra to- *|dos.||Al- ça los|por Iu- bi- le-|* * o,|por|Iu- bi- le- *|
w: * * dos, noes|pa- ra to- *|dos.||Por ma- tar|nos de des- se-|* * o,|de|des- se- * *|
 d8 |] %19
w: o.|
w: o.|
V:3
 A4 B2 G2 | A2 F2 G2 E2 |"^b" F2 D2 E2 C2 | D4 z2 A2 | Bc d4 c2 | d4 B4 | A2 G2 A4 | z2 D2 EF G2- | %8
w: Al- ça la|ni- nya los o-||yos, no|pa- ra to- *||* * dos,|no pa- ra to-|
w: Que la fie-|sta se- gun ve-||o, noes|pa- ra to- *||* * dos,|noes pa- ra to-|
 G2 F2 G4 | E4 D2 D2 | G4 A4 | D8 || A4 c2 A2 | B2 G2 D2 G2- |"^#" G2 A2 F2 G2 | D2 d4 c2 | d4 B4 | %17
w: |||dos,|Al- ça los|por Iu- bi- le-||o, al- ça|los por|
w: |||dos.|Por ma- tar|nos de des- se-||o, por ma-|tar nos|
 A2 G2 A4 | D8 |] %19
w: Iu- bi- le-|o.|
w: de des- se-|o.|

